svg/ini.svg

<?xml version="1.0" encoding="UTF-8"?>
<svg xmlns="http://www.w3.org/2000/svg" xmlns:xlink="http://www.w3.org/1999/xlink" width="23.040001" height="32" viewBox="0 0 23.040001 32">
<defs>
<filter id="filter-remove-color" x="0%" y="0%" width="100%" height="100%">
<feColorMatrix color-interpolation-filters="sRGB" values="0 0 0 0 1 0 0 0 0 1 0 0 0 0 1 0 0 0 1 0" />
</filter>
<linearGradient id="linear-pattern-0" gradientUnits="userSpaceOnUse" x1="36" y1="97" x2="36" y2="-1" gradientTransform="matrix(1, 0, 0, 1, 0, 2)">
<stop offset="0" stop-color="rgb(78.431374%, 83.137256%, 85.882354%)" stop-opacity="1"/>
<stop offset="0.139" stop-color="rgb(84.705883%, 88.235295%, 90.196079%)" stop-opacity="1"/>
<stop offset="0.359" stop-color="rgb(92.156863%, 94.117647%, 95.294118%)" stop-opacity="1"/>
<stop offset="0.617" stop-color="rgb(97.647059%, 98.039216%, 98.431373%)" stop-opacity="1"/>
<stop offset="1" stop-color="rgb(100%, 100%, 100%)" stop-opacity="1"/>
</linearGradient>
<clipPath id="clip-0">
<path clip-rule="nonzero" d="M 0 0 L 23.125 0 L 23.125 32 L 0 32 Z M 0 0 "/>
</clipPath>
<image id="source-13" x="0" y="0" width="24" height="32" xlink:href="data:image/png;base64,iVBORw0KGgoAAAANSUhEUgAAABgAAAAgCAYAAAAIXrg4AAAABmJLR0QA/wD/AP+gvaeTAAAAhklEQVRIie3UMQrCQBCF4W9VBG9glVbP5c28lQoewiY2JrFRkGUT3BQWMn+3zNv5meYR/D2p8N5hU5hNMeCOC/opwRpH7LGsEHQ444D2c7DKgglbNDMEN4Wrc8FbkrCoEPRj+ZolswhBCELwA0GpKjo8KveM/skFA06vcG0XXWVVHQRB8CVPjt8U9AcdmC4AAAAASUVORK5CYII="/>
<mask id="mask-0">
<g filter="url(#filter-remove-color)">
<use xlink:href="#source-13"/>
</g>
</mask>
<linearGradient id="linear-pattern-1" gradientUnits="userSpaceOnUse" x1="36.200001" y1="61.716999" x2="36.200001" y2="20.716999">
<stop offset="0" stop-color="rgb(67.843139%, 80.000001%, 86.274511%)" stop-opacity="1"/>
<stop offset="1" stop-color="rgb(29.803923%, 42.352942%, 48.235294%)" stop-opacity="1"/>
</linearGradient>
<linearGradient id="linear-pattern-2" gradientUnits="userSpaceOnUse" x1="36.200001" y1="62.216999" x2="36.200001" y2="20.216999">
<stop offset="0" stop-color="rgb(67.843139%, 80.000001%, 86.274511%)" stop-opacity="1"/>
<stop offset="1" stop-color="rgb(29.803923%, 42.352942%, 48.235294%)" stop-opacity="1"/>
</linearGradient>
<linearGradient id="linear-pattern-3" gradientUnits="userSpaceOnUse" x1="50.917999" y1="61.716999" x2="50.917999" y2="20.716999">
<stop offset="0" stop-color="rgb(67.843139%, 80.000001%, 86.274511%)" stop-opacity="1"/>
<stop offset="1" stop-color="rgb(29.803923%, 42.352942%, 48.235294%)" stop-opacity="1"/>
</linearGradient>
<linearGradient id="linear-pattern-4" gradientUnits="userSpaceOnUse" x1="50.917999" y1="62.216999" x2="50.917999" y2="20.216999">
<stop offset="0" stop-color="rgb(67.843139%, 80.000001%, 86.274511%)" stop-opacity="1"/>
<stop offset="1" stop-color="rgb(29.803923%, 42.352942%, 48.235294%)" stop-opacity="1"/>
</linearGradient>
<linearGradient id="linear-pattern-5" gradientUnits="userSpaceOnUse" x1="21.482" y1="61.716999" x2="21.482" y2="20.716999">
<stop offset="0" stop-color="rgb(67.843139%, 80.000001%, 86.274511%)" stop-opacity="1"/>
<stop offset="1" stop-color="rgb(29.803923%, 42.352942%, 48.235294%)" stop-opacity="1"/>
</linearGradient>
<linearGradient id="linear-pattern-6" gradientUnits="userSpaceOnUse" x1="21.482" y1="62.216999" x2="21.482" y2="20.216999">
<stop offset="0" stop-color="rgb(67.843139%, 80.000001%, 86.274511%)" stop-opacity="1"/>
<stop offset="1" stop-color="rgb(29.803923%, 42.352942%, 48.235294%)" stop-opacity="1"/>
</linearGradient>
<clipPath id="clip-1">
<rect x="0" y="0" width="24" height="32"/>
</clipPath>
<g id="source-12" clip-path="url(#clip-1)">
<path fill-rule="nonzero" fill="url(#linear-pattern-1)" stroke-width="1" stroke-linecap="butt" stroke-linejoin="miter" stroke="url(#linear-pattern-2)" stroke-miterlimit="10" d="M 42.004395 35.400391 C 42.004395 32.89795 40.502931 30.895997 38.305665 30.004883 L 38.305665 22.705079 C 38.305665 21.496583 37.402345 20.605469 36.206055 20.605469 C 34.997559 20.605469 34.094239 21.496583 34.094239 22.705079 L 34.094239 30.004883 C 31.896973 30.798341 30.395508 32.89795 30.395508 35.400391 C 30.395508 37.902833 31.896973 40.002442 34.094239 40.795899 C 34.094239 40.905763 33.996583 41.101075 33.996583 41.198731 L 33.996583 59.594728 C 33.996583 60.803224 34.899903 61.694337 36.096192 61.694337 C 37.304688 61.694337 38.195802 60.803224 38.195802 59.594728 L 38.195802 41.198731 C 38.195802 41.003419 38.195802 40.905763 38.098145 40.795899 C 40.502931 40.002442 42.004395 37.902833 42.004395 35.400391 Z M 36.206055 36.999513 C 35.778809 37.01172 35.36377 36.840821 35.058595 36.535645 C 34.753419 36.23047 34.594727 35.827638 34.594727 35.400391 C 34.594727 34.497071 35.302735 33.80127 36.206055 33.80127 C 37.097169 33.80127 37.805177 34.497071 37.805177 35.400391 C 37.805177 36.303712 37.097169 36.999513 36.206055 36.999513 Z M 36.206055 36.999513 " transform="matrix(0.32, 0, 0, 0.32, 0, 0)"/>
<path fill-rule="nonzero" fill="url(#linear-pattern-3)" stroke-width="1" stroke-linecap="butt" stroke-linejoin="miter" stroke="url(#linear-pattern-4)" stroke-miterlimit="10" d="M 53.002931 22.802735 C 53.002931 21.594239 52.099611 20.703125 50.903321 20.703125 C 49.694825 20.703125 48.803712 21.594239 48.803712 22.802735 L 48.803712 40.002442 C 46.594239 40.795899 45.104981 42.895509 45.104981 45.39795 C 45.104981 47.900392 46.594239 50.000001 48.803712 50.805665 C 48.803712 50.903321 48.706056 51.098634 48.706056 51.19629 L 48.706056 59.594728 C 48.706056 60.803224 49.597169 61.694337 50.805665 61.694337 C 52.001954 61.694337 52.905275 60.803224 52.905275 59.594728 L 52.905275 51.19629 C 52.905275 51.000978 52.905275 50.903321 52.795411 50.805665 C 55.004884 50.000001 56.494142 47.900392 56.494142 45.39795 C 56.494142 42.895509 55.004884 40.905763 52.795411 40.002442 L 52.795411 22.802735 Z M 50.903321 46.997071 C 50.476075 47.009278 50.061036 46.83838 49.768068 46.533204 C 49.462892 46.240235 49.291993 45.825196 49.3042 45.39795 C 49.3042 44.49463 50.000001 43.798829 50.903321 43.798829 C 51.794435 43.798829 52.502443 44.49463 52.502443 45.39795 C 52.502443 46.301271 51.794435 46.997071 50.903321 46.997071 Z M 50.903321 46.997071 " transform="matrix(0.32, 0, 0, 0.32, 0, 0)"/>
<path fill-rule="nonzero" fill="url(#linear-pattern-5)" stroke-width="1" stroke-linecap="butt" stroke-linejoin="miter" stroke="url(#linear-pattern-6)" stroke-miterlimit="10" d="M 19.396973 59.594728 C 19.396973 60.803224 20.300293 61.694337 21.496583 61.694337 C 22.705079 61.694337 23.596192 60.803224 23.596192 59.594728 L 23.596192 51.19629 C 23.596192 51.000978 23.596192 50.903321 23.498536 50.805665 C 25.695801 50.000001 27.197266 47.900392 27.197266 45.39795 C 27.197266 42.895509 25.695801 40.905763 23.498536 40.002442 L 23.498536 22.802735 C 23.498536 21.594239 22.595215 20.703125 21.398926 20.703125 C 20.202637 20.703125 19.299317 21.594239 19.299317 22.802735 L 19.299317 40.002442 C 17.102051 40.795899 15.600586 42.895509 15.600586 45.39795 C 15.600586 47.900392 17.102051 50.000001 19.299317 50.805665 C 19.299317 50.903321 19.201661 51.098634 19.201661 51.19629 L 19.201661 59.594728 Z M 21.496583 43.798829 C 22.399903 43.798829 23.095704 44.49463 23.095704 45.39795 C 23.095704 46.301271 22.399903 46.997071 21.496583 46.997071 C 20.605469 46.997071 19.897461 46.301271 19.897461 45.39795 C 19.897461 44.49463 20.605469 43.798829 21.496583 43.798829 Z M 21.496583 43.798829 " transform="matrix(0.32, 0, 0, 0.32, 0, 0)"/>
</g>
<clipPath id="clip-2">
<rect x="0" y="0" width="24" height="32"/>
</clipPath>
<g id="source-15" clip-path="url(#clip-2)">
<g clip-path="url(#clip-0)">
<g mask="url(#mask-0)">
<use xlink:href="#source-12"/>
</g>
</g>
</g>
<linearGradient id="linear-pattern-7" gradientUnits="userSpaceOnUse" x1="45.036999" y1="25.813" x2="58.536999" y2="12.313" gradientTransform="matrix(1, 0, 0, 1, 0, 2)">
<stop offset="0" stop-color="rgb(100%, 100%, 100%)" stop-opacity="1"/>
<stop offset="0.35" stop-color="rgb(98.039216%, 98.431373%, 98.431373%)" stop-opacity="1"/>
<stop offset="0.532" stop-color="rgb(92.941177%, 94.509804%, 95.686275%)" stop-opacity="1"/>
<stop offset="0.675" stop-color="rgb(86.666667%, 89.803922%, 91.37255%)" stop-opacity="1"/>
<stop offset="0.799" stop-color="rgb(78.039217%, 82.745099%, 85.490197%)" stop-opacity="1"/>
<stop offset="0.908" stop-color="rgb(67.843139%, 74.117649%, 78.039217%)" stop-opacity="1"/>
<stop offset="1" stop-color="rgb(57.254905%, 64.705884%, 69.01961%)" stop-opacity="1"/>
</linearGradient>
</defs>
<path fill-rule="nonzero" fill="url(#linear-pattern-0)" stroke-width="2" stroke-linecap="butt" stroke-linejoin="miter" stroke="rgb(44.313726%, 56.862748%, 63.137257%)" stroke-opacity="1" stroke-miterlimit="4" d="M 44.995118 1.000977 L 71.997072 27.697755 L 71.997072 98.999026 L 0 98.999026 L 0 1.000977 Z M 44.995118 1.000977 " transform="matrix(0.32, 0, 0, 0.32, 0, 0)"/>
<use xlink:href="#source-15"/>
<path fill-rule="nonzero" fill="url(#linear-pattern-7)" stroke-width="2" stroke-linecap="butt" stroke-linejoin="bevel" stroke="rgb(44.313726%, 56.862748%, 63.137257%)" stroke-opacity="1" stroke-miterlimit="4" d="M 44.995118 1.000977 L 71.997072 27.697755 L 44.995118 27.697755 Z M 44.995118 1.000977 " transform="matrix(0.32, 0, 0, 0.32, 0, 0)"/>
<path fill-rule="nonzero" fill="rgb(29.803923%, 42.352942%, 48.235294%)" fill-opacity="1" d="M 6.496094 29.40625 L 6.496094 23.007812 L 7.777344 23.007812 L 7.777344 29.40625 Z M 9.023438 29.40625 L 9.023438 23.007812 L 10.273438 23.007812 L 12.894531 27.296875 L 12.894531 22.976562 L 14.113281 22.976562 L 14.113281 29.375 L 12.800781 29.375 L 10.238281 25.214844 L 10.238281 29.40625 Z M 15.457031 29.40625 L 15.457031 23.007812 L 16.734375 23.007812 L 16.734375 29.40625 Z M 15.457031 29.40625 "/>
</svg>

<svg role="img" viewBox="0 0 23.04 32" xmlns="http://www.w3.org/2000/svg"><defs><linearGradient gradientTransform="translate(0 2)" gradientUnits="userSpaceOnUse" id="ini_svg__m" x1="36" x2="36" y1="97" y2="-1"><stop offset="0" stop-color="rgb(78.431374%, 83.137256%, 85.882354%)"/><stop offset=".139" stop-color="rgb(84.705883%, 88.235295%, 90.196079%)"/><stop offset=".359" stop-color="rgb(92.156863%, 94.117647%, 95.294118%)"/><stop offset=".617" stop-color="rgb(97.647059%, 98.039216%, 98.431373%)"/><stop offset="1" stop-color="rgb(100%, 100%, 100%)"/></linearGradient><linearGradient gradientUnits="userSpaceOnUse" id="ini_svg__b" x1="36.2" x2="36.2" y1="61.717" y2="20.717"><stop offset="0" stop-color="rgb(67.843139%, 80.000001%, 86.274511%)"/><stop offset="1" stop-color="rgb(29.803923%, 42.352942%, 48.235294%)"/></linearGradient><linearGradient gradientUnits="userSpaceOnUse" id="ini_svg__c" x1="36.2" x2="36.2" y1="62.217" y2="20.217"><stop offset="0" stop-color="rgb(67.843139%, 80.000001%, 86.274511%)"/><stop offset="1" stop-color="rgb(29.803923%, 42.352942%, 48.235294%)"/></linearGradient><linearGradient gradientUnits="userSpaceOnUse" id="ini_svg__d" x1="50.918" x2="50.918" y1="61.717" y2="20.717"><stop offset="0" stop-color="rgb(67.843139%, 80.000001%, 86.274511%)"/><stop offset="1" stop-color="rgb(29.803923%, 42.352942%, 48.235294%)"/></linearGradient><linearGradient gradientUnits="userSpaceOnUse" id="ini_svg__e" x1="50.918" x2="50.918" y1="62.217" y2="20.217"><stop offset="0" stop-color="rgb(67.843139%, 80.000001%, 86.274511%)"/><stop offset="1" stop-color="rgb(29.803923%, 42.352942%, 48.235294%)"/></linearGradient><linearGradient gradientUnits="userSpaceOnUse" id="ini_svg__f" x1="21.482" x2="21.482" y1="61.717" y2="20.717"><stop offset="0" stop-color="rgb(67.843139%, 80.000001%, 86.274511%)"/><stop offset="1" stop-color="rgb(29.803923%, 42.352942%, 48.235294%)"/></linearGradient><linearGradient gradientUnits="userSpaceOnUse" id="ini_svg__g" x1="21.482" x2="21.482" y1="62.217" y2="20.217"><stop offset="0" stop-color="rgb(67.843139%, 80.000001%, 86.274511%)"/><stop offset="1" stop-color="rgb(29.803923%, 42.352942%, 48.235294%)"/></linearGradient><linearGradient gradientTransform="translate(0 2)" gradientUnits="userSpaceOnUse" id="ini_svg__o" x1="45.037" x2="58.537" y1="25.813" y2="12.313"><stop offset="0" stop-color="rgb(100%, 100%, 100%)"/><stop offset=".35" stop-color="rgb(98.039216%, 98.431373%, 98.431373%)"/><stop offset=".532" stop-color="rgb(92.941177%, 94.509804%, 95.686275%)"/><stop offset=".675" stop-color="rgb(86.666667%, 89.803922%, 91.37255%)"/><stop offset=".799" stop-color="rgb(78.039217%, 82.745099%, 85.490197%)"/><stop offset=".908" stop-color="rgb(67.843139%, 74.117649%, 78.039217%)"/><stop offset="1" stop-color="rgb(57.254905%, 64.705884%, 69.01961%)"/></linearGradient><clipPath id="ini_svg__h"><path d="M0 0h23.125v32H0Zm0 0"/></clipPath><clipPath id="ini_svg__a"><path d="M0 0h24v32H0z"/></clipPath><g clip-path="url(#ini_svg__a)" id="ini_svg__j"><path d="M42.004 35.4c0-2.502-1.501-4.504-3.698-5.395v-7.3c0-1.208-.904-2.1-2.1-2.1-1.208 0-2.112.892-2.112 2.1v7.3c-2.197.793-3.698 2.893-3.698 5.395 0 2.503 1.501 4.602 3.698 5.396 0 .11-.097.305-.097.403v18.396c0 1.208.903 2.1 2.1 2.1 1.208 0 2.099-.892 2.099-2.1V41.199c0-.196 0-.293-.098-.403 2.405-.794 3.906-2.893 3.906-5.396ZM36.206 37a1.587 1.587 0 0 1-1.611-1.6c0-.903.708-1.599 1.611-1.599.891 0 1.6.696 1.6 1.6 0 .903-.709 1.599-1.6 1.599Zm0 0" fill="url(#ini_svg__b)" stroke="url(#ini_svg__c)" stroke-miterlimit="10" transform="scale(.32)"/><path d="M53.003 22.803c0-1.209-.903-2.1-2.1-2.1-1.208 0-2.1.891-2.1 2.1v17.2c-2.209.793-3.698 2.893-3.698 5.395s1.49 4.602 3.699 5.408c0 .097-.098.293-.098.39v8.399c0 1.208.891 2.1 2.1 2.1 1.196 0 2.1-.892 2.1-2.1v-8.399c0-.195 0-.293-.11-.39 2.209-.806 3.698-2.906 3.698-5.408s-1.49-4.492-3.699-5.396v-17.2Zm-2.1 24.194a1.52 1.52 0 0 1-1.135-.464 1.52 1.52 0 0 1-.464-1.135c0-.903.696-1.6 1.6-1.6.89 0 1.598.697 1.598 1.6s-.708 1.6-1.599 1.6Zm0 0" fill="url(#ini_svg__d)" stroke="url(#ini_svg__e)" stroke-miterlimit="10" transform="scale(.32)"/><path d="M19.397 59.595c0 1.208.903 2.1 2.1 2.1 1.208 0 2.1-.892 2.1-2.1v-8.399c0-.195 0-.293-.098-.39 2.197-.806 3.698-2.906 3.698-5.408s-1.501-4.492-3.698-5.396v-17.2c0-1.208-.904-2.099-2.1-2.099s-2.1.891-2.1 2.1v17.2c-2.197.793-3.698 2.893-3.698 5.395s1.501 4.602 3.698 5.408c0 .097-.097.293-.097.39v8.399Zm2.1-15.796c.903 0 1.599.696 1.599 1.599s-.696 1.6-1.6 1.6c-.89 0-1.599-.697-1.599-1.6s.708-1.6 1.6-1.6Zm0 0" fill="url(#ini_svg__f)" stroke="url(#ini_svg__g)" stroke-miterlimit="10" transform="scale(.32)"/></g><g clip-path="url(#ini_svg__h)" id="ini_svg__n" mask="url(#ini_svg__i)"><use href="#ini_svg__j"/></g><filter height="100%" id="ini_svg__k" width="100%" x="0%" y="0%"><feColorMatrix color-interpolation-filters="sRGB" values="0 0 0 0 1 0 0 0 0 1 0 0 0 0 1 0 0 0 1 0"/></filter><image height="32" href="data:image/png;base64,iVBORw0KGgoAAAANSUhEUgAAABgAAAAgCAYAAAAIXrg4AAAABmJLR0QA/wD/AP+gvaeTAAAAhklEQVRIie3UMQrCQBCF4W9VBG9glVbP5c28lQoewiY2JrFRkGUT3BQWMn+3zNv5meYR/D2p8N5hU5hNMeCOC/opwRpH7LGsEHQ444D2c7DKgglbNDMEN4Wrc8FbkrCoEPRj+ZolswhBCELwA0GpKjo8KveM/skFA06vcG0XXWVVHQRB8CVPjt8U9AcdmC4AAAAASUVORK5CYII=" id="ini_svg__l" width="24" x="0" y="0"/><mask id="ini_svg__i"><g filter="url(#ini_svg__k)"><use href="#ini_svg__l"/></g></mask></defs><path d="m44.995 1.001 27.002 26.697v71.301H0V1.001Zm0 0" fill="url(#ini_svg__m)" stroke="rgb(44.313726%, 56.862748%, 63.137257%)" stroke-width="2" transform="scale(.32)"/><use href="#ini_svg__n"/><path d="m44.995 1.001 27.002 26.697H44.995Zm0 0" fill="url(#ini_svg__o)" stroke="rgb(44.313726%, 56.862748%, 63.137257%)" stroke-linejoin="bevel" stroke-width="2" transform="scale(.32)"/><path d="M6.496 29.406v-6.398h1.281v6.398Zm2.527 0v-6.398h1.25l2.622 4.289v-4.32h1.218v6.398h-1.312l-2.563-4.16v4.191Zm6.434 0v-6.398h1.277v6.398Zm0 0" fill="rgb(29.803923%, 42.352942%, 48.235294%)"/></svg>
